source/img/icon_mail.svg

<svg width="24" height="25" viewBox="0 0 24 25" fill="none" xmlns="http://www.w3.org/2000/svg">
<path fill-rule="evenodd" clip-rule="evenodd" d="M19.1393 16.4663L14.8089 12.5L19.1393 8.53365L18.5488 7.90264L12.25 13.6719L5.9512 7.90264L5.36069 8.53365L9.69111 12.5L5.36069 16.4663L5.9512 17.0974L10.3308 13.0859L12.25 14.8438L14.1692 13.0859L18.5488 17.0974L19.1393 16.4663ZM4.57597 6.25C3.76695 6.25 3.11111 6.94884 3.11111 7.80786V17.1921C3.11111 18.0525 3.76163 18.75 4.57597 18.75H19.924C20.7331 18.75 21.3889 18.0512 21.3889 17.1921V7.80786C21.3889 6.94748 20.7384 6.25 19.924 6.25H4.57597Z" fill="#FFD74B"/>
</svg>

<svg focusable="false" role="img" width="24" height="25" fill="none" xmlns="http://www.w3.org/2000/svg"><path fill-rule="evenodd" clip-rule="evenodd" d="M19.14 16.466L14.808 12.5l4.33-3.966-.59-.631-6.299 5.769-6.299-5.77-.59.632L9.69 12.5l-4.33 3.966.59.631 4.38-4.011 1.919 1.758 1.92-1.758 4.379 4.011.59-.63zM4.575 6.25c-.809 0-1.465.699-1.465 1.558v9.384c0 .86.65 1.558 1.465 1.558h15.348c.81 0 1.465-.699 1.465-1.558V7.808c0-.86-.65-1.558-1.465-1.558H4.576z" fill="#FFD74B"/></svg>
